X: 403
T: la Maison de Glace
T: the Ice House
C: R\'ejean Brunet
O: Qu\'ebec
R: jig
Z: 2006 John Chambers <jc:trillian.mit.edu>
M: 6/8
L: 1/8
K: D
|:\
"D"D2D DEF | "D"ABA AFA |\
"G"B2B Bcd | "A7"cBA GFE |\
"D"D2D DEF | "D"ABA AFA |
[1 "G"B2B BAG | "A7"[FF]GF [EE]FE :|\
[2 "G"B2B Bcd | "A(F#)"c6 \
|: "Bm"B2B Bcd | "G"B2B Bcd |
"D"fed "A"edc | "Bm"dcA "F#m"dcA |\
"Bm"B2B Bcd | "G"B2B Bcd |\
"D"fed "A"edc | "A"Adc [1 "F#m"d2c :|2 "D"d3 :|

